X:1
T:Barnyard's O' Delgaty (Turra Market)
M:C|
L:1/8
Q:80
C:
S:March
K:HP
|: {g}f3/2e/2{Gdc}dA | \
{g}Bd{g}BA | \
{g}f3/2e/2{Gdc}dA |
{g}Bd{gef}e2 | \
{g}f3/2e/2{Gdc}dA | \
{g}Bd{g}B{G}A |
{gAGAG}A2{ag}a3/2g/2 | \
{a}fe{Gdc}d2 :: \
{g}f3/2g/2{ag}aA |
{g}Bd{g}B{G}A | \
{g}f3/2g/2{ag}ad | \
{g}fd{gef}e2 |
{g}f3/2g/2{ag}aA | \
{g}Bd{g}B{G}A | \
{gAGAG}A2{ag}a3/2g/2 |
{a}fe{Gdc}d2 :|
